!!!COM: Franz Schubert
!!!OTL: Sleep, Sleep, Fine, Sweet, Boy
!!!OTL@@DE: Wiegenlied
!!!OTA@@DE: Schlafe, schlafe, holder, süßer Knabe
!!!ARE: Deutschland
**kern
*clefG2
*k[b-e-a-d-]
*M4/4
*MM 50
=1
{4cc
4ee-
(8.b-
16cc)
4dd-}
=2
{8cc
8cc
(16b-
16a-)
(16g
16a-)
4b-
4e-}
=3
{4cc
4ee-
(8.b-
16cc)
4dd-}
=4
{8cc
(16b-
16cc)
(16dd-
16b-)
4a}
4r
=5
{4.b-
8b-
(8.cc
16b-)
4a-}
=6
{(8ee-
16ff
16ee-
8dd-)
8cc
4b-
4e-}
=7
{4cc
4ee-
8.b-
16cc
4dd-}
=8
{8cc
8cc
(16b-
16cc)
(16dd-
16b-)
4a-}
4r
==
*-